images/tag.svg

<svg enable-background="new 0 0 455 455" height="512" viewBox="0 0 455 455" width="512" xmlns="http://www.w3.org/2000/svg"><path d="m430 82.5h-236.711c-5.341 0-10.541 1.71-14.839 4.88l-73.289 54.051c-6.39 4.713-10.161 12.18-10.161 20.12v20.949c-52.383 0-95 42.617-95 95s42.617 95 95 95h165c8.284 0 15-6.716 15-15s-6.716-15-15-15h-165c-35.841 0-65-29.159-65-65s29.159-65 65-65v20.947c0 7.939 3.771 15.407 10.161 20.12l73.289 54.053c4.298 3.17 9.498 4.88 14.839 4.88h236.711c13.807 0 25-11.193 25-25v-180c0-13.807-11.193-25-25-25zm-5 200h-230.066l-69.934-51.578v-66.846l69.933-51.576h230.067z" fill="#eceff1"/></svg>

<?xml version="1.0"?>
<svg xmlns="http://www.w3.org/2000/svg" xmlns:xlink="http://www.w3.org/1999/xlink" version="1.1" id="Capa_1" x="0px" y="0px" viewBox="0 0 455 455" style="enable-background:new 0 0 455 455;" xml:space="preserve" width="512px" height="512px"><g><g id="XMLID_1_">
	<path id="XMLID_988_" d="M430,82.5H193.289c-5.341,0-10.541,1.71-14.839,4.88l-73.289,54.051C98.771,146.144,95,153.611,95,161.551   V182.5c-52.383,0-95,42.617-95,95s42.617,95,95,95h165c8.284,0,15-6.716,15-15s-6.716-15-15-15H95c-35.841,0-65-29.159-65-65   s29.159-65,65-65v20.947c0,7.939,3.771,15.407,10.161,20.12l73.289,54.053c4.298,3.17,9.498,4.88,14.839,4.88H430   c13.807,0,25-11.193,25-25v-180C455,93.693,443.807,82.5,430,82.5z M425,282.5H194.934L125,230.922v-66.846l69.933-51.576H425   V282.5z" data-original="#000000" class="active-path" data-old_color="#eceff1" fill="#eceff1"/>
</g></g> </svg>
